X:433
T:Tri martolod
Z:Jack Campin, http://www.campin.me.uk/
F:Jack Campin's Nine-Note Tunebook
% last edit 03-02-2013
S:GIF score at http://per.kentel.pagesperso-orange.fr/martold3.htm
M:C
L:1/8
Q:1/4=120
K:GDor
c|BA  G2 G2 F2 |BA  G2 GF/E/ D
E|FD  G2 G2 F F|BA  GG F2    G
D|DD  G2 G2 F2 |BA  G2 GF/E/ D 
E|FD  G2 G2 F F|BA  GG F2    G 
D|G>F GA BB AB |c>B AG B2    A 
D|G>F GA BB AB |c>B AG B2    A|]

